src/img/lk-ico.svg

<svg width="14" height="14" viewBox="0 0 14 14" fill="none" xmlns="http://www.w3.org/2000/svg">
<path d="M13.9645 11.9963C13.903 11.7006 13.6134 11.5108 13.3176 11.5724C13.0219 11.6339 12.8322 11.9236 12.8937 12.2192C12.9292 12.3896 12.887 12.5641 12.7779 12.6983C12.7147 12.776 12.5739 12.9062 12.3404 12.9062H1.65957C1.4261 12.9062 1.28526 12.7759 1.22209 12.6983C1.11302 12.5642 1.0708 12.3896 1.10626 12.2192C1.67381 9.4932 4.07829 7.50187 6.85502 7.43471C6.90312 7.43657 6.95144 7.4375 7 7.4375C7.04873 7.4375 7.09723 7.43654 7.14552 7.43468C9.10148 7.48161 10.9093 8.4723 12.0042 10.1051C12.1723 10.356 12.512 10.4229 12.7629 10.2548C13.0138 10.0866 13.0808 9.74684 12.9126 9.49599C12.0153 8.15768 10.7122 7.18452 9.22655 6.69553C10.1319 6.01661 10.7188 4.93492 10.7188 3.71875C10.7188 1.66824 9.05054 0 7 0C4.94946 0 3.28124 1.66824 3.28124 3.71875C3.28124 4.93566 3.86881 6.01792 4.77512 6.69678C3.94474 6.97017 3.16558 7.39556 2.48363 7.95648C1.23314 8.98507 0.363689 10.4198 0.0354817 11.9963C-0.0673856 12.4903 0.0558528 12.9977 0.373533 13.3883C0.689654 13.7771 1.15841 14 1.65957 14H12.3404C12.8416 14 13.3103 13.7771 13.6264 13.3883C13.9442 12.9977 14.0674 12.4903 13.9645 11.9963ZM4.375 3.71875C4.375 2.27131 5.55256 1.09375 7 1.09375C8.44744 1.09375 9.625 2.27131 9.625 3.71875C9.625 5.12162 8.51881 6.27099 7.13286 6.34041C7.08865 6.33959 7.04435 6.33918 7 6.33918C6.95587 6.33918 6.91173 6.33962 6.86765 6.34044C5.48146 6.27129 4.375 5.12181 4.375 3.71875Z" fill="#424552"/>
</svg>

<svg width="14" height="14" fill="none" xmlns="http://www.w3.org/2000/svg"><path d="M13.964 11.996a.547.547 0 10-1.07.223.571.571 0 01-.116.48.556.556 0 01-.438.207H1.66a.556.556 0 01-.438-.208.571.571 0 01-.116-.479c.568-2.726 2.972-4.717 5.749-4.784a3.751 3.751 0 00.29 0 6.016 6.016 0 014.86 2.67.547.547 0 10.908-.609 7.114 7.114 0 00-3.686-2.8 3.716 3.716 0 001.492-2.977A3.723 3.723 0 007 0a3.723 3.723 0 00-3.719 3.719c0 1.217.588 2.299 1.494 2.978a7.107 7.107 0 00-4.74 5.3A1.66 1.66 0 001.66 14h10.68a1.66 1.66 0 001.624-2.004zM4.375 3.72A2.628 2.628 0 017 1.094a2.628 2.628 0 012.625 2.625A2.628 2.628 0 017.133 6.34a7.165 7.165 0 00-.265 0 2.628 2.628 0 01-2.493-2.62z" fill="#424552"/></svg>
